src/assets/img/agro.svg

<svg width="15" height="30" viewBox="0 0 15 30" fill="none" xmlns="http://www.w3.org/2000/svg">
<path fill-rule="evenodd" clip-rule="evenodd" d="M7.23045 10.1268C7.07694 9.76387 6.85359 9.41983 6.63361 9.09437C6.28745 8.58235 5.91969 8.08588 5.59849 7.55764C5.26751 7.0125 4.97769 6.42342 4.85623 5.79277C4.8171 5.59067 4.79584 5.38484 4.79584 5.17868C4.79584 3.89001 5.99189 2.49455 6.69535 1.47422C6.90318 1.17309 7.16838 0.922638 7.29524 0.572166L7.50205 0L7.71394 0.570516C7.85227 0.943631 8.11138 1.30998 8.34384 1.63038C8.68562 2.10184 9.0473 2.55841 9.36277 3.0488C9.69678 3.56724 9.99133 4.13738 10.1013 4.74978C10.1513 5.02961 10.1614 5.31355 10.1236 5.59542C10.0234 6.34705 9.47647 7.35654 9.09454 8.01625C8.78211 8.55531 8.44472 9.08154 8.07697 9.58443C7.92649 9.78992 7.77197 9.99809 7.60226 10.1884L7.36777 10.4513L7.23045 10.1268ZM6.81512 30L1.53461 27.3158L1.51876 27.3044C1.01031 26.9222 0.604089 26.4699 0.350371 25.8805C0.071686 25.2326 0.0143273 24.5077 0.00285596 23.8101C-0.0106397 23 0.0274854 22.1902 0.0382819 21.3801L0.0430053 21.0161L0.364883 21.1855C1.07712 21.5596 1.79339 21.9256 2.51035 22.2906C3.10989 22.5962 3.71146 22.8986 4.29954 23.2265C5.00974 23.6222 5.81274 24.1028 6.25034 24.8102C6.59886 25.3739 6.7048 26.0471 6.75743 26.6974C6.79589 27.1722 6.80602 27.6488 6.81142 28.1253C6.81715 28.6289 6.81614 29.1328 6.81546 29.6367L6.81512 30ZM8.19269 15.9206C8.19303 15.2866 8.19506 14.6526 8.2099 14.0189C8.22238 13.4954 8.24128 12.9705 8.2983 12.4494C8.36712 11.8187 8.49162 11.1469 8.9002 10.6399C9.30136 10.1417 9.97446 9.80814 10.5359 9.52188C10.9887 9.29105 11.4441 9.06529 11.8939 8.82837C12.5039 8.50696 13.1044 8.16767 13.6935 7.80977C14.0137 7.6151 14.316 7.4356 14.6726 7.31563L14.9672 7.2163L14.9668 7.52722C14.9665 8.14367 14.9641 8.76044 14.949 9.37656C14.9361 9.89703 14.9159 10.4185 14.8582 10.936C14.785 11.5923 14.6514 12.277 14.2391 12.8117C13.8312 13.3406 13.1736 13.6924 12.5892 13.9918C12.1381 14.2233 11.6806 14.4423 11.2262 14.6678C10.6199 14.9689 10.018 15.2791 9.42384 15.6036C9.10804 15.7763 8.83576 15.9937 8.49803 16.1282L8.19236 16.2498L8.19269 15.9206ZM8.19236 29.638C8.19168 29.1152 8.19067 28.592 8.19606 28.0692C8.20113 27.5835 8.21024 27.0972 8.24904 26.6129C8.301 25.9637 8.40458 25.285 8.7612 24.7257C9.19981 24.0379 10.0119 23.5746 10.7133 23.195C11.3024 22.8767 11.903 22.5809 12.5015 22.2805C13.2181 21.9209 13.9331 21.5576 14.6429 21.1851L14.9651 21.0165L14.9695 21.3805C14.9797 22.2156 15.0161 23.0507 14.9918 23.8858C14.9702 24.6145 14.894 25.3739 14.5758 26.0393C14.3069 26.6017 13.8973 27.0289 13.3612 27.3933L8.19269 30L8.19236 29.638ZM6.4892 22.8534C5.71253 22.4458 4.93147 22.046 4.16627 21.6171C3.72462 21.3694 3.27859 21.1297 2.83154 20.8911C2.49314 20.7106 2.15339 20.5315 1.82072 20.3399C1.37166 20.081 0.89627 19.7819 0.591943 19.3517C0.226886 18.8359 0.138149 18.16 0.0926016 17.5446C0.0544764 17.0339 0.0473914 16.5212 0.0430053 16.0095C0.0379445 15.4197 0.0399688 14.8303 0.0406436 14.2409L0.0409847 13.8698L2.6885 15.2795C3.49992 15.7117 4.32754 16.1251 5.1005 16.6249C5.5715 16.9294 6.03137 17.2813 6.32625 17.7693C6.66195 18.3253 6.74495 19.0019 6.78442 19.6383C6.81411 20.1212 6.81816 20.6055 6.81917 21.0892C6.82052 21.6117 6.81715 22.1338 6.8158 22.656L6.81479 23.024L6.4892 22.8534ZM6.51755 16.1319C6.03575 15.9531 5.57015 15.6729 5.12379 15.4198C4.78943 15.2305 4.45575 15.0382 4.11195 14.8668C3.29985 14.4623 2.47189 14.0706 1.70466 13.585C1.23602 13.2882 0.783245 12.9418 0.495788 12.4571C0.166157 11.9012 0.0909185 11.2205 0.0575168 10.5872C0.0322124 10.1072 0.031877 9.62668 0.0328892 9.14609C0.0342387 8.63204 0.038622 8.11767 0.040309 7.60328L0.0416604 7.23554L5.27527 9.98085C6.82052 10.9846 6.90622 12.7789 6.86506 14.442C6.85258 14.9372 6.82693 15.4312 6.81816 15.9264L6.81243 16.2414L6.51755 16.1319ZM8.19 22.6597C8.1792 21.8306 8.1404 21.0016 8.15929 20.1726C8.17549 19.4557 8.2433 18.7079 8.54763 18.0495C8.82125 17.4581 9.25142 17.0153 9.78551 16.6527C10.0882 16.4469 10.4164 16.2762 10.7366 16.0991C11.2562 15.8118 11.7805 15.5326 12.3079 15.2592C12.8632 14.9709 13.4216 14.6881 13.9887 14.4231C14.2111 14.319 14.4348 14.2132 14.6639 14.1243L14.9668 14.0071L14.9672 14.3329C14.9675 14.876 14.9682 15.4191 14.9604 15.9619C14.9533 16.4475 14.9412 16.9332 14.8987 17.4171C14.8417 18.0728 14.7293 18.7521 14.367 19.3152C13.9209 20.008 13.1132 20.4747 12.4057 20.86C11.8207 21.1784 11.2238 21.4734 10.6293 21.7729C9.9225 22.1284 9.21701 22.4866 8.51659 22.8543L8.19472 23.0233L8.19 22.6597ZM7.6802 7.57146L7.6839 7.55795C7.70752 7.4765 7.76353 7.39002 7.80672 7.31635C7.88263 7.18623 7.96091 7.05746 8.03513 6.92633C8.23318 6.57788 8.40795 6.21252 8.51524 5.82521C8.82665 4.69876 8.43326 3.80723 7.50948 3.12961L7.50374 3.12554L7.498 3.12961C6.20208 4.08031 6.05633 5.33076 6.84077 6.68972C7.14071 7.20918 7.04354 7.40219 7.67109 7.56914L7.6802 7.57146ZM1.55081 23.5387V23.5509C1.55081 24.1674 1.52888 25.0545 1.871 25.5885C2.07748 25.9106 2.4034 26.1195 2.7391 26.2864C3.60181 26.716 4.44056 27.1908 5.2918 27.642L5.30564 27.6491V27.6336C5.30564 27.0394 5.33229 26.1823 5.0283 25.6564C4.82789 25.3104 4.48611 25.0687 4.15176 24.8643C3.74621 24.6165 3.32414 24.3945 2.90375 24.1734C2.6389 24.0342 2.37269 23.8977 2.10278 23.7689C1.9351 23.6888 1.74144 23.5898 1.56262 23.5421L1.55081 23.5387ZM9.70252 13.6961L9.71365 13.6934C9.90799 13.6481 10.1074 13.5626 10.2909 13.4852C10.5578 13.3723 10.8206 13.25 11.0814 13.124C11.3362 13.0006 11.5882 12.8728 11.8375 12.739C12.0163 12.643 12.1969 12.546 12.3656 12.4328C12.6793 12.2222 12.9907 11.9786 13.18 11.644C13.4708 11.1286 13.457 10.3502 13.457 9.77163V9.75982L13.4452 9.7625C12.6277 9.95244 11.5612 10.6247 10.8365 11.0654C10.5055 11.2665 10.1091 11.5149 9.91508 11.861C9.65866 12.3193 9.70252 13.1655 9.70252 13.6843V13.6961ZM13.457 23.5391L13.4452 23.5418C13.2755 23.5813 13.07 23.6875 12.9111 23.7625C12.6334 23.8936 12.3595 24.0325 12.0865 24.1734C11.6665 24.3908 11.2474 24.6108 10.8358 24.844C10.4883 25.0407 10.1172 25.2813 9.92183 25.6423C9.6482 26.1475 9.70252 27.0651 9.70252 27.6336V27.6495L12.2623 26.2797C12.5956 26.089 12.928 25.8616 13.1362 25.5307C13.4695 25.0004 13.457 24.1599 13.457 23.5509V23.5391ZM1.55081 16.3908V16.406C1.55081 16.9923 1.50627 17.8805 1.79171 18.4033C1.98773 18.7619 2.33693 19.0005 2.68445 19.1962C3.09505 19.4274 3.51173 19.6474 3.93043 19.8634C4.20001 20.0026 4.47093 20.1398 4.74523 20.2696C4.91562 20.3503 5.11163 20.4494 5.29349 20.4977L5.30564 20.5011V20.4889C5.30564 19.8367 5.29754 18.9928 4.91898 18.4348C4.65042 18.039 4.2027 17.7706 3.79142 17.5449C3.05962 17.1427 2.30218 16.7889 1.56464 16.3978L1.55081 16.3908ZM1.55081 9.75982V9.77163C1.55081 10.3722 1.53226 11.2293 1.86155 11.7514C2.07006 12.0823 2.41284 12.3091 2.74551 12.5004C3.14971 12.7326 3.56571 12.9452 3.98475 13.15C4.22801 13.2689 4.47329 13.3842 4.72263 13.4897C4.90515 13.5667 5.1005 13.6485 5.29383 13.6934L5.30564 13.6961V13.6843C5.30564 13.1057 5.32555 12.2767 5.0111 11.7724C4.79281 11.423 4.41593 11.1938 4.05965 11.0063C3.73103 10.8336 3.41085 10.6457 3.08729 10.4635C2.63451 10.2087 2.06837 9.88012 1.56262 9.7625L1.55081 9.75982ZM9.70252 20.5042L9.71601 20.497C10.4013 20.1334 11.1105 19.8197 11.8095 19.4838C12.2181 19.2874 12.6766 19.057 12.9685 18.6997C13.4469 18.1144 13.457 17.1279 13.457 16.406V16.3908L13.4435 16.3978C12.5926 16.8493 11.7535 17.3239 10.8908 17.7534C10.5551 17.9204 10.2292 18.1292 10.0227 18.4513C9.68025 18.9853 9.70252 19.8725 9.70252 20.4889V20.5042Z" fill="#0B582C"/>
</svg>

<svg width="15" height="30" fill="none" xmlns="http://www.w3.org/2000/svg"><path fill-rule="evenodd" clip-rule="evenodd" d="M7.23 10.127c-.153-.363-.376-.707-.596-1.033-.347-.512-.714-1.008-1.036-1.536-.33-.545-.62-1.135-.742-1.765a3.234 3.234 0 01-.06-.614c0-1.289 1.196-2.684 1.9-3.705.207-.3.472-.551.6-.902L7.501 0l.212.57c.138.374.397.74.63 1.06.342.472.703.928 1.019 1.419.334.518.628 1.088.738 1.7.05.28.06.565.023.846-.1.752-.648 1.762-1.03 2.421-.312.54-.65 1.066-1.017 1.568a7.69 7.69 0 01-.475.604l-.234.263-.138-.324zM6.815 30l-5.28-2.684-.016-.012C1.01 26.922.604 26.47.35 25.881c-.278-.648-.336-1.373-.347-2.07-.014-.811.024-1.62.035-2.43l.005-.365.322.17c.712.374 1.428.74 2.145 1.105.6.305 1.201.608 1.79.936.71.395 1.513.876 1.95 1.583.349.564.455 1.237.507 1.887.039.475.049.952.054 1.428.006.504.005 1.008.004 1.512V30zm1.378-14.08c0-.633.002-1.267.017-1.901.012-.524.031-1.049.088-1.57.07-.63.194-1.302.602-1.81.401-.497 1.074-.83 1.636-1.117.453-.23.908-.457 1.358-.694.61-.321 1.21-.66 1.8-1.018.32-.195.622-.374.979-.494l.294-.1v.311c0 .617-.003 1.233-.018 1.85-.013.52-.033 1.041-.09 1.559-.074.656-.208 1.341-.62 1.876-.408.529-1.065.88-1.65 1.18-.45.231-.908.45-1.363.676-.606.3-1.208.611-1.802.936-.316.172-.588.39-.926.524l-.306.122v-.33zm0 13.718c-.001-.523-.002-1.046.003-1.569.005-.485.014-.972.053-1.456.052-.65.156-1.328.512-1.887.439-.688 1.25-1.151 1.952-1.531.59-.318 1.19-.614 1.789-.915.716-.36 1.431-.722 2.14-1.095l.323-.168.005.364c.01.835.046 1.67.022 2.505-.022.729-.098 1.488-.416 2.153-.27.563-.679.99-1.215 1.354L8.193 30v-.362zm-1.704-6.785c-.776-.407-1.558-.807-2.323-1.236a72.776 72.776 0 00-1.334-.726c-.339-.18-.679-.36-1.011-.551-.45-.259-.925-.558-1.23-.988-.364-.516-.453-1.192-.498-1.807a23.302 23.302 0 01-.05-1.536C.038 15.42.04 14.83.041 14.241v-.371l2.647 1.41c.812.432 1.64.845 2.413 1.345.47.304.93.656 1.225 1.144.336.556.419 1.233.458 1.87.03.482.034.966.035 1.45.002.523-.002 1.045-.003 1.567l-.001.368-.326-.17zm.029-6.721c-.482-.179-.948-.46-1.394-.712-.335-.19-.668-.382-1.012-.553-.812-.405-1.64-.796-2.407-1.282-.469-.297-.922-.643-1.21-1.128-.329-.556-.404-1.237-.437-1.87-.026-.48-.026-.96-.025-1.44.001-.515.006-1.03.007-1.544l.002-.367L5.275 9.98c1.546 1.004 1.631 2.798 1.59 4.461-.012.495-.038.99-.047 1.484l-.006.315-.294-.11zM8.19 22.66c-.01-.83-.05-1.658-.03-2.487.015-.717.083-1.465.388-2.123.273-.592.703-1.035 1.238-1.397.302-.206.63-.377.95-.554.52-.287 1.044-.566 1.572-.84a44.984 44.984 0 011.68-.836c.223-.104.447-.21.676-.299l.303-.117v.326c0 .543.001 1.086-.007 1.629-.007.486-.019.971-.061 1.455-.057.656-.17 1.335-.532 1.898-.446.693-1.254 1.16-1.961 1.545-.585.318-1.182.613-1.777.913-.707.355-1.412.714-2.112 1.081l-.322.17-.005-.364zM7.68 7.57l.004-.013c.024-.082.08-.168.123-.242.076-.13.154-.259.228-.39a4.89 4.89 0 00.48-1.1c.312-1.127-.082-2.019-1.006-2.696l-.005-.004-.006.004c-1.296.95-1.442 2.2-.657 3.56.3.52.203.712.83.88l.01.001zM1.55 23.54v.012c0 .616-.021 1.504.321 2.038.206.322.532.53.868.697.863.43 1.702.905 2.553 1.356l.014.007v-.015c0-.595.026-1.452-.278-1.978-.2-.346-.542-.587-.876-.792a22.21 22.21 0 00-1.248-.69 23.21 23.21 0 00-.801-.405c-.168-.08-.362-.18-.54-.227l-.012-.003zm8.153-9.843l.01-.003c.195-.045.394-.13.578-.208a20.402 20.402 0 001.547-.746c.178-.096.359-.193.528-.306.313-.21.625-.454.814-.789.29-.515.277-1.294.277-1.872V9.76l-.012.002c-.817.19-1.884.863-2.609 1.303-.33.202-.727.45-.92.796-.257.458-.213 1.304-.213 1.823v.012zm3.754 9.843l-.012.003c-.17.04-.375.145-.534.22a37.52 37.52 0 00-2.075 1.082c-.348.197-.719.437-.914.798-.274.506-.22 1.423-.22 1.992v.015l2.56-1.37c.334-.19.666-.417.874-.748.334-.53.321-1.371.321-1.98v-.012zM1.551 16.391v.015c0 .586-.045 1.475.24 1.997.197.359.546.598.893.793a38.664 38.664 0 002.061 1.074c.17.08.367.18.548.228l.013.003v-.012c0-.652-.008-1.496-.387-2.054-.269-.396-.716-.664-1.128-.89-.731-.402-1.489-.756-2.226-1.147l-.014-.007zm0-6.631v.012c0 .6-.019 1.457.31 1.98.21.33.552.557.885.748a20.95 20.95 0 001.977.99c.182.077.378.159.57.203l.013.003v-.012c0-.578.02-1.407-.295-1.912-.218-.349-.595-.578-.951-.766-.329-.172-.65-.36-.973-.543-.452-.254-1.019-.583-1.524-.7L1.55 9.76zm8.152 10.744l.013-.007c.685-.364 1.395-.677 2.094-1.013.408-.197.867-.427 1.159-.784.478-.586.488-1.572.488-2.294v-.015l-.014.007c-.85.451-1.69.926-2.552 1.355-.336.167-.662.376-.868.698-.343.534-.32 1.421-.32 2.038v.015z" fill="#0B582C"/></svg>
